X:759
T:Reel 759
M:4/4
K:Gmaj
L:1/8
dc|BGAF D2GA|BGAB cAdc|BGAF DGGg| (3fed cA BGAc|BGBG dGBG|ADDE F2Ac|BGAF GBdg|ecAc BGGe|fgaf b2ag|fdcA dAAc|fgaf g2fg|abag abc'a|f|dfaf g2fd|dfef gdeg|fefa b2ag|fdcA AGGA|
